public/assets/img/material-icons/downloading.svg

<svg height="24" viewBox="0 0 24 24" width="24" xmlns="http://www.w3.org/2000/svg"><path d="m18.32 4.26a9.949 9.949 0 0 0 -5.32-2.21v2.02c1.46.18 2.79.76 3.9 1.62zm1.61 6.74h2.02c-.2-2.01-1-3.84-2.21-5.32l-1.43 1.42a7.941 7.941 0 0 1 1.62 3.9zm-1.62 5.9 1.43 1.43a9.981 9.981 0 0 0 2.21-5.32h-2.02a7.945 7.945 0 0 1 -1.62 3.89zm-5.31 3.03v2.02c2.01-.2 3.84-1 5.32-2.21l-1.43-1.43c-1.1.86-2.43 1.44-3.89 1.62zm0-7.93v-5h-2v5h-4l5 5 5-5zm-2 7.93v2.02c-5.05-.5-9-4.76-9-9.95s3.95-9.45 9-9.95v2.02c-3.95.49-7 3.85-7 7.93s3.05 7.44 7 7.93z"/></svg>

<svg xmlns="http://www.w3.org/2000/svg" width="24" height="24" viewBox="0 0 24 24"><path d="M18.32 4.26A9.949 9.949 0 0 0 13 2.05v2.02c1.46.18 2.79.76 3.9 1.62l1.42-1.43zM19.93 11h2.02c-.2-2.01-1-3.84-2.21-5.32L18.31 7.1a7.941 7.941 0 0 1 1.62 3.9zm-1.62 5.9 1.43 1.43a9.981 9.981 0 0 0 2.21-5.32h-2.02a7.945 7.945 0 0 1-1.62 3.89zM13 19.93v2.02c2.01-.2 3.84-1 5.32-2.21l-1.43-1.43c-1.1.86-2.43 1.44-3.89 1.62zM13 12V7h-2v5H7l5 5 5-5h-4zm-2 7.93v2.02c-5.05-.5-9-4.76-9-9.95s3.95-9.45 9-9.95v2.02C7.05 4.56 4 7.92 4 12s3.05 7.44 7 7.93z"/></svg>
